X: 155
T:Credo La belle se siet
N: Derived from Jos1303-Credo_La_belle_se_siet.krn
C: Josquin des Prez
%%abc-version 2.0
%%abcx-abcm2ps-target-version 5.9.1 (29 Sep 2008)
%%abc-creator hum2abc beta
%%abcx-conversion-date 2019/02/12 16:15:45
%%abc-edited-by Jesse Rodin
%%abc-edited-by Jesse Rodin; Victoria Chang 2012/02/02
%%abcx-initial-encoding-date 2012/02/02/
%%humdrum-veritas 3331612845
%%humdrum-veritas-data 3580590684
%%linebreak <none>
%%barnumbers 0
L: 1/4
M: 3/1
Q: 1/2=120
%%staves [1 2 3 4]
V: 1 clef=treble
V: 2 clef=treble-8
V: 3 clef=treble-8
V: 4 clef=bass
K: F
[V:1] F6EDC2D2- | 
[V:2] z12 | 
[V:3] z12 | 
[V:4] F,8F,4 | 
[V:1] D2E2D2G3FED | 
[V:2] z12 | 
[V:3] z12 | 
[V:4] G,4G,2G,2G,4 | 
[V:1] C4z2F2F2F2 | 
[V:2] z12 | 
[V:3] F8F4 | 
[V:4] A,12 | 
[V:1] E2D4C2B,4 | 
[V:2] z12 | 
[V:3] G4G2G2G4 | 
[V:4] z12 | 
[V:1] A,2E2F2A3GAG/F/ | 
[V:2] z12 | 
[V:3] A8A4 | 
[V:4] z12 | 
[V:1] E2G2A2c3BcB/A/ | 
[V:2] z12 | 
[V:3] c8c4 | 
[V:4] z2E,2F,2A,3G,A,G,/F,/ | 
[V:1] G2A3FGAB2A2 | 
[V:2] z12 | 
[V:3] c8d4 | 
[V:4] E,2F,4C,2G,2F,2 | 
[V:1] D3EF2G4^F2 | 
[V:2] z12 | 
[V:3] B4A8 | 
[V:4] G,4D,2C,2D,4 | 
[V:1] G8z4 | 
[V:2] z12 | 
[V:3] G4G2G2G2G2 | 
[V:4] G,,2C,2B,,2C,3B,,C,B,,/A,,/ | 
[V:1] z2G2F2G3FGF/E/ | 
[V:2] z12 | 
[V:3] B4B2B2B4 | 
[V:4] G,,2_E,2D,2E,3D,E,D,/C,/ | 
[V:1] D4C2D3CG2 | 
[V:2] z12 | 
[V:3] B4A2B3ABA/G/ | 
[V:4] B,,C,D,E,F,2B,,2_E,4 | 
[V:1] AFG3FF4E2 | 
[V:2] z12 | 
[V:3] F2E2F4G4 | 
[V:4] D,2C,2D,4C,4 | 
[V:1] F4C2D3CDC/B,/ | 
[V:2] F12- | 
[V:3] F4z4B,4 | 
[V:4] F,,2B,,2A,,2B,,3A,,B,,A,,/G,,/ | 
[V:1] A,4A,2A,2C4 | 
[V:2] F12 | 
[V:3] C2D3CDC/B,/A,2A2 | 
[V:4] F,,4z4F,,4 | 
[V:1] D4F6ED | 
[V:2] F12 | 
[V:3] B3cd2c2A2B2 | 
[V:4] B,,6C,2D,4 | 
[V:1] E2E2E2G3FED | 
[V:2] G8G4 | 
[V:3] c8z2c2- | 
[V:4] C,8C,4 | 
[V:1] C4z2F2E2D2- | 
[V:2] A12- | 
[V:3] cBAGF2A3GF2 | 
[V:4] z2F,3E,D,2C,2D,2 | 
[V:1] D^C/=B,/C2D3=C_B,2A,2- | 
[V:2] A8z4 | 
[V:3] E4D2F4E2 | 
[V:4] A,,4F,3E,D,2C,2 | 
[V:1] A,G,/F,/G,2A,4z4 | 
[V:2] c12- | 
[V:3] F2C2z2F2G4 | 
[V:4] F,2E,2F,4C,4 | 
[V:1] z2A2G2A2B2A2- | 
[V:2] c8d4 | 
[V:3] A3G/F/E2A2G2F2 | 
[V:4] F,,4z4z4 | 
[V:1] AG/F/G2A2E4E2 | 
[V:2] B4A8 | 
[V:3] G4E2c2c2c2- | 
[V:4] z4A,,4A,,2A,,2 | 
[V:1] E2G3FD2z2G2- | 
[V:2] G4G2G2G4 | 
[V:3] cBG3/A/Bc2=Bc2C2 | 
[V:4] C,4G,,4C,3B,, | 
[V:1] GFE2D4C4 | 
[V:2] G8G4 | 
[V:3] D2C2z2G2E2C2 | 
[V:4] G,,2C,4B,,2C,2B,,A,, | 
[V:1] z2G4G2G2B2- | 
[V:2] B12 | 
[V:3] G3F/E/D4D2D2 | 
[V:4] G,,8G,,4 | 
[V:1] BAFGA2F2G4 | 
[V:2] F8B4 | 
[V:3] D4C2F4E2 | 
[V:4] B,,4A,,2B,,2G,,4 | 
[V:1] C3DED/E/F4E2 | 
[V:2] A4G8 | 
[V:3] F2c6c4- | 
[V:4] F,,4C,4C,4 | 
[V:1] F2z2C2D2C2A,2 | 
[V:2] F12 | 
[V:3] c2BAA4z2c2 | 
[V:4] F,,12 | 
[V:1] B,2A,2zA2GA2D2 | 
[V:2] z12 | 
[V:3] d2c2A2B2A2zd- | 
[V:4] z12 | 
[V:1] E2D2zG2FG2C2 | 
[V:2] z12 | 
[V:3] dcd2G2A2G2zc- | 
[V:4] z12 | 
[V:1] D2C2zF2EF2A2- | 
[V:2] z12 | 
[V:3] cBc2F2G2F2c2 | 
[V:4] z4z4z2F,2 | 
[V:1] A2G3FF3E/D/E2 | 
[V:2] z12 | 
[V:3] c2c2A2B2G4 | 
[V:4] F,2C,2D,2B,,2C,2C,2 | 
[V:1] F4z2D3CC2 | 
[V:2] F8F4 | 
[V:3] F4z2B,2C4 | 
[V:4] F,,4B,,4A,,4 | 
[V:1] B,2_E3DD3CC2 | 
[V:2] G4G2G2G4 | 
[V:3] D2_E2C2D2_E3C | 
[V:4] G,,2C,4B,,2C,4 | 
[V:1] z2C4D2C2F2- | 
[V:2] A8A4 | 
[V:3] F3EC2F6 | 
[V:4] F,,8z4 | 
[V:1] F2E2z2A3GG2 | 
[V:2] c8c4 | 
[V:3] G4z2F2G4 | 
[V:4] C,4F,4E,4 | 
[V:1] F2B3AA3GG2- | 
[V:2] d8d4 | 
[V:3] A2B2G2A2B3G | 
[V:4] D,2G,4F,2G,4 | 
[V:1] GE2D/C/E2D3CF2- | 
[V:2] c4G2B2A4 | 
[V:3] G2c2B2G2z2c2- | 
[V:4] C,4z2G,,2A,,2F,,2 | 
[V:1] FE/D/E2z2E2E2E2- | 
[V:2] G8G4 | 
[V:3] c4c4c3B | 
[V:4] C,8C,4 | 
[V:1] EFG3FA3GG2 | 
[V:2] c8B4 | 
[V:3] A2G2C2F2D2E2 | 
[V:4] C,3B,,A,,2F,,2G,,2E,,2 | 
[V:1] A2GFE2F4E2 | 
[V:2] A4G2F2G4 | 
[V:3] C2c4B2c4 | 
[V:4] F,,G,,A,,B,,C,2D,2C,4 | 
[V:1] F12- | 
[V:2] F12- | 
[V:3] A12 | 
[V:4] F,,12- | 
[V:1] F12 ||  
[V:2] F12 ||  
[V:3] c12 ||  
[V:4] F,,12 ||  
[V:1]  [K:F] [K:clef=treble][M:3/1]z12 | 
[V:2]  [K:F] [K:clef=treble-8][M:3/1]G8G4 | 
[V:3]  [K:F] [K:clef=treble-8][M:3/1]z12 | 
[V:4]  [K:F] [K:clef=bass][M:3/1]z12 | 
[V:1] z12 | 
[V:2] G8A4 | 
[V:3] z12 | 
[V:4] C,8C,4 | 
[V:1] z12 | 
[V:2] G4E4F4 | 
[V:3] z12 | 
[V:4] C,8D,4 | 
[V:1] z12 | 
[V:2] E6A4G2 | 
[V:3] z12 | 
[V:4] C,4A,,4B,,4 | 
[V:1] C8C4 | 
[V:2] A4z4z4 | 
[V:3] C3DECF4G2 | 
[V:4] A,,4z4z4 | 
[V:1] C8D4 | 
[V:2] z12 | 
[V:3] A2FGABc4B2 | 
[V:4] z12 | 
[V:1] C4A,4B,4 | 
[V:2] z12 | 
[V:3] A2c3BA4G2 | 
[V:4] z12 | 
[V:1] A,2CDECF4G2 | 
[V:2] c8c4 | 
[V:3] A4z2F4E2 | 
[V:4] z12 | 
[V:1] A2FGABc4B2 | 
[V:2] c8d4 | 
[V:3] F2A3GE2F2G2 | 
[V:4] z12 | 
[V:1] A2c3BA4G2 | 
[V:2] c4A4B4 | 
[V:3] z2C2F4D2E2 | 
[V:4] z12 | 
[V:1] A2GFE4z4 | 
[V:2] A4z4z4 | 
[V:3] F4c8 | 
[V:4] z4C,3D,E,C,F,2- | 
[V:1] z12 | 
[V:2] z12 | 
[V:3] c4c8 | 
[V:4] F,2E,2F,2A,3G,E,2 | 
[V:1] z12 | 
[V:2] z12 | 
[V:3] d4c4A4 | 
[V:4] F,2G,2A,2F,3E,C,2 | 
[V:1] z4z2C2D2F2- | 
[V:2] z12 | 
[V:3] B4A6GF | 
[V:4] D,2E,2F,6E,D, | 
[V:1] F2E2F2A4G2 | 
[V:2] c8c4 | 
[V:3] G4z2F4E2 | 
[V:4] C,4F,,4z4 | 
[V:1] A3Bc4F4 | 
[V:2] c4c2c2d4 | 
[V:3] F2A3Bc2A2F2 | 
[V:4] F,8F,4 | 
[V:1] z2c3BA4G2 | 
[V:2] c4A4B4 | 
[V:3] A3Bc4z2G2 | 
[V:4] F,4F,2F,2G,4 | 
[V:1] A3G/A/B2A3GG2 | 
[V:2] A4z4z4 | 
[V:3] c4d3cB2AG | 
[V:4] F,4D,4E,4 | 
[V:1] F2EDE2C2F3G | 
[V:2] z12 | 
[V:3] A2B2G2c4=B2 | 
[V:4] D,2G,4F,E,D,4 | 
[V:1] E4z2A4F2 | 
[V:2] c8c4 | 
[V:3] c2G2A8 | 
[V:4] C,4F,8 | 
[V:1] G4F2A4GF | 
[V:2] c8d4 | 
[V:3] G4A4F4 | 
[V:4] E,4F,8 | 
[V:1] E4D2F4ED | 
[V:2] c4A4B4 | 
[V:3] G2A3GFEF4 | 
[V:4] C,4D,8 | 
[V:1] C4z2F4ED | 
[V:2] A4A2A4A2 | 
[V:3] E4F8 | 
[V:4] A,,4D,8 | 
[V:1] E4G6F2 | 
[V:2] c8B4 | 
[V:3] G12 | 
[V:4] C,8E,4 | 
[V:1] F6EDE4 | 
[V:2] A4G8 | 
[V:3] c12 | 
[V:4] F,4C,8 | 
[V:1] F4z2C4B,A, | 
[V:2] F8F4 | 
[V:3] A2B4AGA4 | 
[V:4] D,4B,,2C,2A,,4 | 
[V:1] B,3A,G,2G4F2 | 
[V:2] G4B2c2A4 | 
[V:3] z2D4C2D2d2 | 
[V:4] G,,4z4D,4 | 
[V:1] G3FG2FED2G2- | 
[V:2] G8B4- | 
[V:3] B2c2c2d4G2- | 
[V:4] E,2C,2E,2F,2G,4 | 
[V:1] GFEDC4F3G | 
[V:2] B4A8 | 
[V:3] G4E2F2c2d2 | 
[V:4] G,,4A,,2F,,2A,,2B,,2 | 
[V:1] E3DECF4E2 | 
[V:2] G3FG2F2G4 | 
[V:3] c3Bc2B2c4 | 
[V:4] C,3D,C,2D,2C,4 | 
[V:1] F8z2C2 | 
[V:2] F12 | 
[V:3] z2C2C3B,/C/D2C2 | 
[V:4] F,,12 | 
[V:1] C3B,/C/D2C2A,B,CD | 
[V:2] z12 | 
[V:3] A,2A2G2c2c3B/c/ | 
[V:4] z12 | 
[V:1] B,2A,2z2E2E3D/E/ | 
[V:2] z12 | 
[V:3] d2c2ABcdc2A2 | 
[V:4] z12 | 
[V:1] F2E2CDEFD2C2 | 
[V:2] z12 | 
[V:3] A4z4z2A2 | 
[V:4] z2A,,2A,,3G,,/A,,/B,,2A,,2 | 
[V:1] z4z4z2G2 | 
[V:2] z12 | 
[V:3] A3G/A/B2A2FGAB | 
[V:4] F,,G,,A,,B,,G,,2F,,2z4 | 
[V:1] G3F/G/A2G2EFGA | 
[V:2] z12 | 
[V:3] G2c2c4z4 | 
[V:4] z4z2C,2C,3B,,/C,/ | 
[V:1] F2E2z4z2A,2 | 
[V:2] z12 | 
[V:3] z2c2c3B/c/d2c2- | 
[V:4] D,2C,2A,,B,,C,D,B,,2A,,2 | 
[V:1] A,3G,/A,/B,2A,2F,G,A,B, | 
[V:2] z12 | 
[V:3] cBA2G2A3Gc2 | 
[V:4] z4z4z2E,2 | 
[V:1] G,F,C3DEFG2C2 | 
[V:2] z12 | 
[V:3] z2G2A2G2c4 | 
[V:4] E,3D,/E,/F,2E,2C,D,E,F, | 
[V:1] F2E2C2A3GG2- | 
[V:2] z12 | 
[V:3] B2c3BAGB4 | 
[V:4] D,2C,2z2F,,2G,,2G,,2 | 
[V:1] GFF2E2F3E/D/E2 | 
[V:2] z4z2F2G2G2 | 
[V:3] A4G2F2c2c2- | 
[V:4] A,,2F,,2C,2D,2C,4 | 
[V:1] z2A3GG3FF2 | 
[V:2] A4z4z4 | 
[V:3] cBAGB4A4 | 
[V:4] z2F,,2G,,2G,,2A,,2F,,2 | 
[V:1] E2F3E/D/E2z2A2 | 
[V:2] z2F2G2G2A4 | 
[V:3] G2F2c4z2F2 | 
[V:4] C,2D,2C,4z4 | 
[V:1] G2A3GG3FF2 | 
[V:2] c3BG2B2A4 | 
[V:3] E2F2D4C2c2- | 
[V:4] z2F,,2G,,2G,,2A,,2F,,2 | 
[V:1] E3FGCF3EED | 
[V:2] G2c3BA2G4 | 
[V:3] cBA2G2c6 | 
[V:4] C,3D,E,2F,2C,4 | 
[V:1] F12- | 
[V:2] F12- | 
[V:3] A6GFA2B2 | 
[V:4] F,,12- | 
[V:1] F12 ||  
[V:2] F12 ||  
[V:3] c12 ||  
[V:4] F,,12 ||  
[V:1]  [K:F] [K:clef=treble][M:2/1]E8 | 
[V:2]  [K:F] [K:clef=treble-8][M:2/1]c8- | 
[V:3]  [K:F] [K:clef=treble-8][M:2/1]G8 | 
[V:4]  [K:F] [K:clef=bass][M:2/1]C,8 | 
[V:1] E4E4 | 
[V:2] c8 | 
[V:3] A4A4 | 
[V:4] A,,4A,,4 | 
[V:1] F4F2F2- | 
[V:2] c8 | 
[V:3] A4A4 | 
[V:4] F,,4F,,4 | 
[V:1] F2EDE4 | 
[V:2] c8 | 
[V:3] G4G4 | 
[V:4] C,4C,4 | 
[V:1] F6F2 | 
[V:2] d8- | 
[V:3] B4B4 | 
[V:4] B,,4B,,4 | 
[V:1] F4F4 | 
[V:2] d8 | 
[V:3] B4B4 | 
[V:4] B,,4B,,4 | 
[V:1] E8 | 
[V:2] c8- | 
[V:3] G4z2G2 | 
[V:4] C,8 | 
[V:1] z2A4G2- | 
[V:2] c8- | 
[V:3] A2F2G4 | 
[V:4] F,4E,4 | 
[V:1] GFF4E2 | 
[V:2] c8 | 
[V:3] A4G4 | 
[V:4] F,4C,4 | 
[V:1] F4D4- | 
[V:2] A8 | 
[V:3] F8- | 
[V:4] D,6C,2 | 
[V:1] D8 | 
[V:2] B8- | 
[V:3] F4G4- | 
[V:4] B,,2A,,2G,,4 | 
[V:1] D4F4- | 
[V:2] B8 | 
[V:3] G2FED4 | 
[V:4] B,,6A,,G,, | 
[V:1] F2EDC4- | 
[V:2] A8- | 
[V:3] F6ED | 
[V:4] F,,8 | 
[V:1] C2B,2A,2G,2 | 
[V:2] A8 | 
[V:3] C4z4 | 
[V:4] z4F,4- | 
[V:1] F,4z4 | 
[V:2] z8 | 
[V:3] A4B4- | 
[V:4] F,2E,2D,2C,2 | 
[V:1] F6E2 | 
[V:2] z8 | 
[V:3] B2AGF4 | 
[V:4] B,,4D,4- | 
[V:1] D4C4- | 
[V:2] z8 | 
[V:3] A6GF | 
[V:4] D,2C,B,,A,,4 | 
[V:1] C4F4 | 
[V:2] z8 | 
[V:3] E4z4 | 
[V:4] z4A,4- | 
[V:1] E4F4 | 
[V:2] z8 | 
[V:3] c4d4- | 
[V:4] A,2G,2F,2E,2 | 
[V:1] A6G2 | 
[V:2] z8 | 
[V:3] d2cBA4 | 
[V:4] D,4F,4- | 
[V:1] F4E4- | 
[V:2] z8 | 
[V:3] c6B2 | 
[V:4] F,2E,D,C,4 | 
[V:1] E4A4 | 
[V:2] c8- | 
[V:3] A6GF | 
[V:4] z4C,4- | 
[V:1] G4A4 | 
[V:2] c8 | 
[V:3] E4c4- | 
[V:4] C,2B,,2A,,2G,,2 | 
[V:1] c6B2 | 
[V:2] c8 | 
[V:3] c2B2A2GF | 
[V:4] F,,4A,,4- | 
[V:1] A4G4 | 
[V:2] c8- | 
[V:3] E4z2c2- | 
[V:4] A,,2G,,F,,E,,4 | 
[V:1] A2F3E/D/E2- | 
[V:2] c8- | 
[V:3] c2BAG4 | 
[V:4] F,,4C,4- | 
[V:1] E2G4FE | 
[V:2] c8 | 
[V:3] E3FG4 | 
[V:4] C,2D,2E,4 | 
[V:1] F2B4A2- | 
[V:2] d8- | 
[V:3] A2B2G2A2 | 
[V:4] D,2G,4F,2 | 
[V:1] AGG3FF2 | 
[V:2] d8 | 
[V:3] B2G2A4- | 
[V:4] G,2F,E,D,4 | 
[V:1] E2A4G2- | 
[V:2] c8- | 
[V:3] A4F2G2 | 
[V:4] z2F,4E,2 | 
[V:1] GFF3EE2 | 
[V:2] c8 | 
[V:3] A2F2G4- | 
[V:4] F,2E,D,C,4 | 
[V:1] D2G4F2- | 
[V:2] B8- | 
[V:3] G4E2F2 | 
[V:4] z2E,4D,2 | 
[V:1] FEE3DD2 | 
[V:2] B8 | 
[V:3] G2E2F4- | 
[V:4] E,2D,C,B,,4 | 
[V:1] C2F4E2- | 
[V:2] A8- | 
[V:3] F4D2E2 | 
[V:4] z2D,4C,2 | 
[V:1] EDD3CC2 | 
[V:2] A8 | 
[V:3] F2D2E4- | 
[V:4] D,2C,B,,A,,4 | 
[V:1] B,2C2A,2G,2 | 
[V:2] z8 | 
[V:3] E4C2D2 | 
[V:4] z2C,4B,,2 | 
[V:1] z2C4B,2 | 
[V:2] z8 | 
[V:3] E2F2D2E2 | 
[V:4] A,,2G,,F,,G,,4 | 
[V:1] A,2G,F,G,4 | 
[V:2] z8 | 
[V:3] F2c6 | 
[V:4] F,,4C,4 | 
[V:1] F,4z4 | 
[V:2] z8 | 
[V:3] A2F2GABc | 
[V:4] D,4E,4 | 
[V:1] C4D4 | 
[V:2] z8 | 
[V:3] AGc4=B2 | 
[V:4] F,4D,4 | 
[V:1] E4F4 | 
[V:2] z8 | 
[V:3] c4F4 | 
[V:4] C,4z4 | 
[V:1] D4C4 | 
[V:2] z8 | 
[V:3] G4A4 | 
[V:4] z8 | 
[V:1] z2F4E2 | 
[V:2] z4c4- | 
[V:3] B4G4 | 
[V:4] z4C,4 | 
[V:1] F4G2A2- | 
[V:2] c8 | 
[V:3] F4z4 | 
[V:4] F,4E,2F,2- | 
[V:1] A2GFE4 | 
[V:2] c8 | 
[V:3] z4z2A2- | 
[V:4] F,2G,2A,2A,,2 | 
[V:1] z8 | 
[V:2] d4c4 | 
[V:3] A2G2A2c2- | 
[V:4] B,,4A,,4 | 
[V:1] z8 | 
[V:2] A4B4 | 
[V:3] cBA4G2 | 
[V:4] z8 | 
[V:1] z2A4G2 | 
[V:2] A4z4 | 
[V:3] A4c4- | 
[V:4] z8 | 
[V:1] A2c3BA2- | 
[V:2] z8 | 
[V:3] c2BAc4 | 
[V:4] z8 | 
[V:1] A2G2A2A,2- | 
[V:2] z8 | 
[V:3] B4A4 | 
[V:4] z8 | 
[V:1] A,2G,2A,2C2- | 
[V:2] z8 | 
[V:3] z2c3BA2 | 
[V:4] C,8- | 
[V:1] CB,A,4G,2 | 
[V:2] z8 | 
[V:3] G2A2E2c2- | 
[V:4] C,4C,4- | 
[V:1] A,2E2F3G | 
[V:2] z8 | 
[V:3] c4A2B2- | 
[V:4] C,4D,4 | 
[V:1] E4z2C2 | 
[V:2] z8 | 
[V:3] BAc3BA2- | 
[V:4] C,4A,,4 | 
[V:1] D3EC2G,2 | 
[V:2] z8 | 
[V:3] A2G2A2c2- | 
[V:4] B,,4A,,4 | 
[V:1] A,2F,4E,2 | 
[V:2] c8- | 
[V:3] c2BAG4 | 
[V:4] F,,4C,4 | 
[V:1] F,2F3EG2- | 
[V:2] c8 | 
[V:3] z2F2G4- | 
[V:4] z2F,,2C,3D, | 
[V:1] G2F2F4- | 
[V:2] B4A4 | 
[V:3] G4c4- | 
[V:4] E,4F,4 | 
[V:1] F2EDE4 | 
[V:2] G8 | 
[V:3] c8 | 
[V:4] C,8 | 
[V:1] z2A4F2- | 
[V:2] F4z2F2 | 
[V:3] A3GF3E | 
[V:4] D,8 | 
[V:1] F2D4G2- | 
[V:2] G4B4 | 
[V:3] D4d4- | 
[V:4] B,,4G,,4 | 
[V:1] G2FEF4 | 
[V:2] A8 | 
[V:3] d4d3c | 
[V:4] D,8 | 
[V:1] z2G6 | 
[V:2] G4c4- | 
[V:3] B3AG4 | 
[V:4] E,6D,C, | 
[V:1] A4G4- | 
[V:2] c2BAB4 | 
[V:3] F2c2B2G2- | 
[V:4] F,4G,4 | 
[V:1] G2F2F4- | 
[V:2] c4F4 | 
[V:3] G2c4B2 | 
[V:4] C,4D,4 | 
[V:1] F2EDE4 | 
[V:2] G8 | 
[V:3] c8 | 
[V:4] C,8 | 
[V:1] [M:3/1]F8z4 | 
[V:2] [M:3/1]F12 | 
[V:3] [M:3/1]A12 | 
[V:4] [M:3/1]F,,12 | 
[V:1] C4C4C4 | 
[V:2] z12 | 
[V:3] z4F4F4 | 
[V:4] z12 | 
[V:1] D8D4 | 
[V:2] z12 | 
[V:3] F4G8 | 
[V:4] z12 | 
[V:1] E4E4E4 | 
[V:2] z12 | 
[V:3] G4A4G4 | 
[V:4] C,4C,4C,4 | 
[V:1] D4F6E2 | 
[V:2] F4F4F4 | 
[V:3] B4A4F4 | 
[V:4] D,8D,4 | 
[V:1] C4z4G4 | 
[V:2] G8G4 | 
[V:3] z12 | 
[V:4] E,4E,4E,4 | 
[V:1] F4A6G2 | 
[V:2] A4A4A4 | 
[V:3] z12 | 
[V:4] D,4F,6E,2 | 
[V:1] E4F6E2 | 
[V:2] A8A4 | 
[V:3] z4z4F4 | 
[V:4] C,4D,8 | 
[V:1] E8E4 | 
[V:2] c8c4 | 
[V:3] G12 | 
[V:4] C,4C,4C,4 | 
[V:1] F8E4 | 
[V:2] c4c4c4 | 
[V:3] A4A4G4 | 
[V:4] F,8C,4 | 
[V:1] F4G6F2 | 
[V:2] c8d4 | 
[V:3] A4G4A4 | 
[V:4] F,4E,4D,4 | 
[V:1] F4E8 | 
[V:2] d4c8 | 
[V:3] B4G8 | 
[V:4] B,,4C,8 | 
[V:1] A4A4G4 | 
[V:2] c4c4B4 | 
[V:3] A4A4d4 | 
[V:4] F,4F,4G,4 | 
[V:1] F8F4 | 
[V:2] A8A4 | 
[V:3] d12 | 
[V:4] D,8D,4 | 
[V:1] F4F4F4 | 
[V:2] A4A4A4 | 
[V:3] c12- | 
[V:4] F,4F,4F,4 | 
[V:1] E8E4 | 
[V:2] G8G4 | 
[V:3] c12 | 
[V:4] C,8C,4 | 
[V:1] D8D4 | 
[V:2] B8B4 | 
[V:3] F8F4 | 
[V:4] B,,8B,,4 | 
[V:1] D4D8 | 
[V:2] B4B8 | 
[V:3] F4G8 | 
[V:4] B,,4G,,8 | 
[V:1] D8C4 | 
[V:2] F8A4 | 
[V:3] A12 | 
[V:4] D,8F,4 | 
[V:1] F6E2E2D2 | 
[V:2] A4G8 | 
[V:3] c4c6BA | 
[V:4] F,4C,8 | 
[V:1] F4z4F4 | 
[V:2] F12 | 
[V:3] A8z4 | 
[V:4] F,,12 | 
[V:1] G8G4 | 
[V:2] z12 | 
[V:3] c4c4c4 | 
[V:4] z12 | 
[V:1] A12 | 
[V:2] z4z4F4 | 
[V:3] F6E2D4 | 
[V:4] z12 | 
[V:1] z12 | 
[V:2] G8G4 | 
[V:3] C4z4z4 | 
[V:4] C,4C,4C,4 | 
[V:1] F4F4F4 | 
[V:2] A12 | 
[V:3] z12 | 
[V:4] F,,12 | 
[V:1] G4G6FG | 
[V:2] z12 | 
[V:3] c4c4c4 | 
[V:4] z12 | 
[V:1] A8F4 | 
[V:2] F4F4F4 | 
[V:3] A4c8 | 
[V:4] z12 | 
[V:1] E4G8 | 
[V:2] G4G6FG | 
[V:3] C4z4E4 | 
[V:4] C,4C,4C,4 | 
[V:1] C4z4C4 | 
[V:2] A4z4G4 | 
[V:3] F6E2E2D2 | 
[V:4] A,,4C,8 | 
[V:1] C8C4 | 
[V:2] A12- | 
[V:3] F8E4 | 
[V:4] F,,8A,,4 | 
[V:1] C4D8 | 
[V:2] A4B8 | 
[V:3] F4G8 | 
[V:4] A,,4G,,8 | 
[V:1] D8D4 | 
[V:2] A12- | 
[V:3] F4z4F4 | 
[V:4] D,12 | 
[V:1] C4F6E2 | 
[V:2] A8A4 | 
[V:3] F4c6B2 | 
[V:4] F,12- | 
[V:1] F2G2A6G2 | 
[V:2] c8c4 | 
[V:3] A8A4 | 
[V:4] F,12 | 
[V:1] E8E4 | 
[V:2] c8c4 | 
[V:3] G12 | 
[V:4] C,12 | 
[V:1] E6F2G2FG | 
[V:2] G8G4 | 
[V:3] c8B4 | 
[V:4] C,6B,,A,,G,,4 | 
[V:1] A4G6F2 | 
[V:2] c8A4 | 
[V:3] A4c8 | 
[V:4] F,,4C,4D,4- | 
[V:1] F6EDE4 | 
[V:2] F4G8 | 
[V:3] B4c8 | 
[V:4] D,4C,8 | 
[V:1] F12- | 
[V:2] F12- | 
[V:3] A6B2c4 | 
[V:4] F,,12- | 
[V:1] F12- | 
[V:2] F12- | 
[V:3] C4D8 | 
[V:4] F,,12- | 
[V:1] F12 |]  
[V:2] F12 |]  
[V:3] C12 |]  
[V:4] F,,12 |]  



